X:2295
T:Mylecharane
C:Eliza Cookson 1859
C:Traditional
O:Isle of Man 
N:See also KV 247,294,302,373,403,404.
N:Second note (D) and D in bar 6 have been revised according to p.205 Journal of Folk Song Soc. Vol.VII no.29.
Z:Kiaull Vannin #295
L:1/4
M:3/4 
K:D
e|d B e|e2 e|d B G|F2 f|g f e|e ^d e|f2 f|
g a g|f g e|e/d/ c/B/ A/G/|F G A|B G E|F e ^d|e2||

